assets/svg/like.svg

<?xml version="1.0" encoding="UTF-8"?>
<svg width="1000px" height="1000px" viewBox="0 0 1000 1000" version="1.1" xmlns="http://www.w3.org/2000/svg" xmlns:xlink="http://www.w3.org/1999/xlink">
    <!-- Generator: sketchtool 52.4 (67378) - http://www.bohemiancoding.com/sketch -->
    <title>like</title>
    <desc>Created with sketchtool.</desc>
    <g id="新版图标" stroke="none" stroke-width="1" fill="none" fill-rule="evenodd">
        <g id="like" fill="#323233">
            <g id="圆角-喜欢-面">
                <path d="M368.058896,804.104964 L126.947199,549.293855 C29.8408312,446.670127 32.0679385,285.395478 131.971082,185.492334 C231.082585,86.3808313 391.774081,86.3808313 490.885584,185.492334 L500.636189,195.24294 L510.397821,185.481308 C609.558083,86.3210456 770.328633,86.3210456 869.488895,185.481308 C969.483852,285.476265 971.834155,446.860253 874.793526,549.724723 L541.574481,902.941723 C540.796837,903.766037 539.994154,904.566363 539.167558,905.341579 C516.787358,926.330661 481.629607,925.202937 460.640525,902.822736 L368.058896,804.104964 Z" id="Combined-Shape"></path>
            </g>
        </g>
    </g>
</svg>

<svg width="1000" height="1000" xmlns="http://www.w3.org/2000/svg"><path d="M368.059 804.105L126.947 549.294c-97.106-102.624-94.88-263.899 5.024-363.802 99.112-99.111 259.803-99.111 358.915 0l9.75 9.75 9.762-9.76c99.16-99.161 259.93-99.161 359.09 0 99.996 99.994 102.346 261.378 5.306 364.243l-333.22 353.217a55.555 55.555 0 0 1-2.406 2.4c-22.38 20.989-57.538 19.86-78.527-2.52l-92.582-98.717z" fill="#323233" fill-rule="evenodd"/></svg>
